svg/system/key_2_line.svg

<?xml version="1.0" encoding="UTF-8"?>
<svg width="24px" height="24px" viewBox="0 0 24 24" version="1.1" xmlns="http://www.w3.org/2000/svg" xmlns:xlink="http://www.w3.org/1999/xlink">
    <title>key_2_line</title>
    <g id="页面-1" stroke="none" stroke-width="1" fill="none" fill-rule="evenodd">
        <g id="System" transform="translate(-768.000000, 0.000000)">
            <g id="key_2_line" transform="translate(768.000000, 0.000000)">
                 <path d="M24,0 L24,24 L0,24 L0,0 L24,0 Z M12.5934901,23.257841 L12.5819402,23.2595131 L12.5108777,23.2950439 L12.4918791,23.2987469 L12.4918791,23.2987469 L12.4767152,23.2950439 L12.4056548,23.2595131 C12.3958229,23.2563662 12.3870493,23.2590235 12.3821421,23.2649074 L12.3780323,23.275831 L12.360941,23.7031097 L12.3658947,23.7234994 L12.3769048,23.7357139 L12.4804777,23.8096931 L12.4953491,23.8136134 L12.4953491,23.8136134 L12.5071152,23.8096931 L12.6106902,23.7357139 L12.6232938,23.7196733 L12.6232938,23.7196733 L12.6266527,23.7031097 L12.609561,23.275831 C12.6075724,23.2657013 12.6010112,23.2592993 12.5934901,23.257841 L12.5934901,23.257841 Z M12.8583906,23.1452862 L12.8445485,23.1473072 L12.6598443,23.2396597 L12.6498822,23.2499052 L12.6498822,23.2499052 L12.6471943,23.2611114 L12.6650943,23.6906389 L12.6699349,23.7034178 L12.6699349,23.7034178 L12.678386,23.7104931 L12.8793402,23.8032389 C12.8914285,23.8068999 12.9022333,23.8029875 12.9078286,23.7952264 L12.9118235,23.7811639 L12.8776777,23.1665331 C12.8752882,23.1545897 12.8674102,23.1470016 12.8583906,23.1452862 L12.8583906,23.1452862 Z M12.1430473,23.1473072 C12.1332178,23.1423925 12.1221763,23.1452606 12.1156365,23.1525954 L12.1099173,23.1665331 L12.0757714,23.7811639 C12.0751323,23.7926639 12.0828099,23.8018602 12.0926481,23.8045676 L12.108256,23.8032389 L12.3092106,23.7104931 L12.3186497,23.7024347 L12.3186497,23.7024347 L12.3225043,23.6906389 L12.340401,23.2611114 L12.337245,23.2485176 L12.337245,23.2485176 L12.3277531,23.2396597 L12.1430473,23.1473072 Z" id="MingCute" fill-rule="nonzero"></path>
                <path d="M11.852,5.78189 C13.6093,4.02453 16.4586,4.02453 18.2159,5.78189 C19.9733,7.53925 19.9733,10.3885 18.2159,12.1459 C16.8717,13.49 14.8868,13.8075 13.2397,13.0923 C12.9957,12.9863 12.7116,12.9136 12.4028,12.9136 L11.0413,12.9136 C10.3509,12.9136 9.79129,13.4733 9.7913,14.1636 L9.7913,15.742 L8.21287,15.742 C7.52251,15.742 6.96287,16.3017 6.96287,16.992 L6.96287,18.5705 L4.72023,18.5705 L4.72023,17.1563 L10.0756,11.8009 C10.62,11.2565 10.7551,10.5046 10.6254,9.8695 C10.3325,8.43555 10.7426,6.89123 11.852,5.78189 Z M19.6301,4.36768 C17.0917,1.82927 12.9761,1.82927 10.4377,4.36768 C8.83366,5.97176 8.24428,8.20575 8.66584,10.2697 C8.67902,10.3343 8.66399,10.3813 8.66021,10.3878 L3.15957,15.8885 C2.87827,16.1698 2.72023,16.5513 2.72023,16.9492 L2.72023,19.5605 C2.72023,20.1182 3.17239,20.5705 3.7301,20.5705 L7.71287,20.5705 C8.40322,20.5705 8.96287,20.0108 8.96287,19.3205 L8.96287,17.742 L10.5413,17.742 C11.2317,17.742 11.7913,17.1824 11.7913,16.492 L11.7913,14.9136 L12.4015,14.9136 C12.4035,14.9138 12.4173,14.9156 12.4431,14.9268 C14.8181,15.958 17.6858,15.5044 19.6301,13.5601 C22.1685,11.0217 22.1685,6.90609 19.6301,4.36768 Z M14.6804,9.31743 C15.2662,9.90321 16.2159,9.90321 16.8017,9.31743 C17.3875,8.73164 17.3875,7.78189 16.8017,7.19611 C16.2159,6.61032 15.2662,6.61032 14.6804,7.19611 C14.0946,7.78189 14.0946,8.73164 14.6804,9.31743 Z" id="形状" fill="#09244B"></path>
            </g>
        </g>
    </g>
</svg>

<svg xmlns="http://www.w3.org/2000/svg" width="24" height="24"><g fill="none" fill-rule="evenodd"><path d="M24 0v24H0V0h24ZM12.593 23.258l-.011.002-.071.035-.02.004-.014-.004-.071-.035c-.01-.004-.019-.001-.024.005l-.004.01-.017.428.005.02.01.013.104.074.015.004.012-.004.104-.074.012-.016.004-.017-.017-.427c-.002-.01-.009-.017-.017-.018Zm.265-.113-.013.002-.185.093-.01.01-.003.011.018.43.005.012.008.007.201.093c.012.004.023 0 .029-.008l.004-.014-.034-.614c-.003-.012-.01-.02-.02-.022Zm-.715.002a.023.023 0 0 0-.027.006l-.006.014-.034.614c0 .012.007.02.017.024l.015-.002.201-.093.01-.008.004-.011.017-.43-.003-.012-.01-.01-.184-.092Z"/><path fill="#09244B" d="M11.852 5.782a4.5 4.5 0 1 1 1.388 7.31 2.102 2.102 0 0 0-.837-.178H11.04c-.69 0-1.25.56-1.25 1.25v1.578H8.213c-.69 0-1.25.56-1.25 1.25v1.578H4.72v-1.414l5.356-5.355c.544-.544.68-1.296.55-1.931a4.495 4.495 0 0 1 1.226-4.088Zm7.778-1.414A6.5 6.5 0 0 0 8.666 10.27a.21.21 0 0 1-.006.118l-5.5 5.5a1.5 1.5 0 0 0-.44 1.061v2.611c0 .558.452 1.01 1.01 1.01h3.983c.69 0 1.25-.56 1.25-1.25v-1.578h1.578c.69 0 1.25-.56 1.25-1.25v-1.578h.61c.002 0 .016.002.042.013a6.502 6.502 0 0 0 7.187-10.56Zm-4.95 4.95a1.5 1.5 0 1 0 2.122-2.122 1.5 1.5 0 0 0-2.122 2.121Z"/></g></svg>
